X:1
T:Deus superbis
T:Sixtus Dietrich
T:Source : Bicinia---Tomus II---Wittemberg---G.Rhau---1545. Editor : André Vierendeels (27/06/17).
T:Notes : Original clefs : C3, F3 (from m47 the end in F2) (from m47 to m54 notated in F3) Original note values have been halved Editorial accidentals above the staff Square bracket indicates ligature Dotted brackets indicate black notes 
T:Deus superbis
T:©
T:©
T:©
C:Sixtus Dietrich
Z:©
%%score [ 1 2 ]
L:1/8
Q:1/4=100
M:2/2
K:F
V:1 treble-8 nm="Tenor" snm="T"
V:2 bass nm="Bass" snm="B"
V:1
 z8 | z4 d4 | f4 e2 d2- | d2 cB A2 d2- | d2 c2 B2 G2 | A4 G4- | G4 z4 | d4 f2 f2 | e2 d2 d2 cB | %9
w: |De-|us su- per-|* * * bis re-||si- stit,|_|hu- mi- li-|bus au- tem _ _|
 A2 d4 c2 | B2 G2 A4 | G4 z2 d2 | d2 d2 f3 d | edef g3 f | de f2 d2 e2- | ed d4 c2 | d8 | %17
w: _ dat _|_ gra- ti-|am, hu-|mi- li- a- *||* * mi- ni i-|* * * gi-|tur,|
 z2 d4 c2 | f4 e2 c2- | cd ef gfed | e4 d4 | z2 d4 c2 | f4 e2 c2 | cdef gfed | e4 d2 G2- | %25
w: sub po-|ten- ti ma-|* * * * nu _ _ _|De- i,|ut vos|ex- * *|al- * * * * * * *|* tet in|
 GABc de f2- | fe d4 cB | AG B2 A4 | G8 | z2 G2 A2 F2- | FGAB c4- | c4 d2 e2 | c3 d ef g2- | %33
w: _ _ _ _ _ _ tem-||* * * po-|re,|in tem- po-|* * * * re,|_ vi- si-|ta- * * * *|
 g2 c2 f4- | f2 ed e4 | de f2 g2 g2 | f2 g2 G2 B2- | Bcde f3 e | c4 z2 c2 | e3 f g3 f | d4 z2 A2 | %41
w: * ti- o-|||* nis, o- mnem|_ so- li- ci- tu- di-|nem ve-||stram, pro-|
 A2 A2 c3 B | G2 d2 d2 d2 | f3 e d2 c2 | B4 A2 D2- | DEFG A2 G2 | A2 B2 c4 | F2 f4 ed | %48
w: i- ci- en- *|tes, pro- i- ci-|en- * * *|* tes, in|_ _ _ _ _ _|* * e-|um, quo- * *|
 c2 d2 A2 B2- | B2 AG F2 G2 | D4 z2 B2- | B2 AG B2 c2 | G2 f4 ed | f2 g2 d2 f2- | f2 ed f2 g2 | %55
w: |* ni- * am ip-|psi, i-|* * * * psi|est cu- * *|* ra de vo-||
 c4 d4 | e4 d4- | d8 |] %58
w: |* bis.|_|
V:2
 G,4 B,4 | A,2 G,4 F,E, | D,E,F,G, A,2 B,2- | B,2 A,G, F,2 B,,2- | B,,2 C,2 D,2 E,2 | D,4 z2 G,2 | %6
w: De- us|su- per- * *||* * * bis re-|* * * si-|sit hu-|
 B,2 B,2 A,2 G,2- | G,2 F,E, D,2 B,,2 | C,2 D,2 B,,2 C,2 | D,2 B,,4 C,2 | D,2 E,2 D,4 | %11
w: mi- li- bus au-|* * * tem _|_ _ dat _|_ gra- *|* ti- am-|
"^#" z2 G,2 G,2 G,2 | B,3 G, A,G,A,B, | C3 B, G,A, B,2- | B,2 A,2 F,2 G,2- | G,F, D,F, E,4 | %16
w: hi- mi- li|a- * * * * *||* mi- ni i-|* * * * gi-|
 D,2 G,4 F,2 | B,4 A,2 F,2- | F,G, A,B, CB,A,G, | A,4 G,4 | z2 G,4 F,2 | B,4 A,2 F,2- | %22
w: tur, sub po-|ten- ti ma-|* * nu _ _ _ _ _|De- i,|ut vos|ex- * al-|
 F,G,A,B, CB,A,G, | A,4 G,2 C,2- | C,D, E,F, G,A, B,2- | B,A, G,4 F,E, | D,8- | D,8 | %28
w: |tet in tem-||* * * po- *|re,|_|
 E,2 C,3 D,E,F, | G,4 z4 | z2 D,2 E,2 C,2- | C,D, E,F, G,4 | C,4 z4 | z2 G,2 A,2 F,2- | %34
w: in tem- po- * *|re|vi- si- ta-|* * ti- * o-|nis,|vi- si- ta-|
 F,G,A,B, C4 | A,4 G,4- | G,8- | G,4 z2 D,2 | F,3 G, A,3 B, | C2 C,2 E,3 F, | G,2 D,2 D,2 D,2 | %41
w: * * * * ti-|o- nis,|_|* o-|mnem so- li- ci-|tu- di- nem ve-|* * stram pro|
 F,3 E, C,2 G,2 | G,2 G,2 B,4 | z2 B,,4 C,2 | D,2 E,2 F,3 G, | A,2 D,4 E,2 | F,2 G,2 A,3 B, | %47
w: i- * * *|ci- en- tes,|in e-||* um, quo-|ni- am i- *|
 C2 F,4 G,2 | A,2 B,2 C2 D2- | D2 CB, A,2 G,2 | A,4 G,2 D2- | D2 CB, D2 C2 | B,2 D4 CB, | %53
w: * psi est|cu- * * *||* ra, [i-|* * * * pse|est cu- * *|
 D2 C2 B,2 D2- | D2 C2 B,2 G,2 | A,4 G,4- | G,8- | G,8 |] %58
w: * ra] de vo-||* bis.|_||

